source/images/icons/icon-editorial/telephone.svg

<?xml version="1.0" encoding="UTF-8"?>
<svg width="80px" height="80px" viewBox="0 0 80 80" version="1.1" xmlns="http://www.w3.org/2000/svg" xmlns:xlink="http://www.w3.org/1999/xlink">
    <!-- Generator: Sketch 55.2 (78181) - https://sketchapp.com -->
    <title>Illustrative Icons/Telephone</title>
    <desc>Created with Sketch.</desc>
    <g id="Illustrative-Icons/Telephone" stroke="none" stroke-width="1" fill="none" fill-rule="evenodd">
        <path d="M57.6678419,66.0311047 C57.1179274,66.0335065 56.5693015,65.9776383 56.0311752,65.8643589 C34.5702796,61.2253928 17.8068079,44.4619212 13.1678418,23.0010256 C12.7623451,21.0235309 13.0974613,18.9659766 14.1095085,17.2193589 C15.353726,15.0211552 16.8323467,12.9641626 18.5195085,11.0843589 C19.1181105,10.4131172 19.9686748,10.0207348 20.8678418,10.0010255 C21.790482,9.97827395 22.6820805,10.3349133 23.3345085,10.9876922 L37.3561752,25.0093589 C38.0068117,25.660192 38.0068117,26.7151925 37.3561752,27.3660256 L30.8995085,33.8226922 C30.3342863,34.3911908 30.2478551,35.2792021 30.6928418,35.9460256 C33.9647164,40.8538738 38.1770071,45.0644651 43.0861752,48.3343589 C43.7529987,48.7793457 44.6410099,48.6929144 45.2095085,48.1276923 L51.6678419,41.6760256 C52.3186749,41.025389 53.3736754,41.025389 54.0245085,41.6760256 L62.3578419,50.0093589 C62.7911028,50.4278164 62.9648629,51.0474887 62.8123371,51.6302045 C62.6598114,52.2129202 62.2047365,52.6679951 61.6220207,52.8205209 C61.039305,52.9730466 60.4196326,52.7992866 60.0011752,52.3660256 L52.8461752,45.2110256 L47.5678418,50.4893589 C45.8730515,52.1760304 43.2249123,52.4359662 41.2345085,51.1110256 C35.9597257,47.596397 31.4341371,43.0708084 27.9195085,37.7960256 C26.5945679,35.8056217 26.8545037,33.1574826 28.5411752,31.4626922 L33.8195085,26.1843589 L20.9761751,13.3443589 L20.9761751,13.3443589 C19.4628009,15.0386708 18.136266,16.8910143 17.0195085,18.8693589 C16.4105767,19.9053666 16.203011,21.1288181 16.4361751,22.3076922 C20.8010505,42.4786929 36.5568412,58.2344836 56.7278419,62.5993589 C57.906716,62.832523 59.1301675,62.6249574 60.1661752,62.0160256 C62.63175,60.6267302 64.8978859,58.9100286 66.9028419,56.9126923 C67.5568067,56.2810719 68.5963165,56.290105 69.2392062,56.9329946 C69.8820958,57.5758843 69.8911289,58.6153941 69.2595085,59.2693589 C67.0417912,61.4791974 64.5351443,63.378665 61.8078419,64.9160256 C60.5470577,65.6384225 59.1208944,66.022522 57.6678419,66.0311047 L57.6678419,66.0311047 Z M64.6678419,56.1676923 C65.5883165,56.1676923 66.3345085,55.4215002 66.3345085,54.5010256 C66.3345085,53.580551 65.5883165,52.8343589 64.6678419,52.8343589 C63.7473673,52.8343589 63.0011752,53.580551 63.0011752,54.5010256 C63.0011752,55.4215002 63.7473673,56.1676923 64.6678419,56.1676923 Z" id="Shape-color" fill="#ADB5BD"></path>
    </g>
</svg>

<svg width="80" height="80">
    <title>
        Illustrative Icons/Telephone
    </title>
    <path d="M57.668 66.031a7.78 7.78 0 0 1-1.637-.167 55.947 55.947 0 0 1-42.863-42.863 8.233 8.233 0 0 1 .942-5.782 34.985 34.985 0 0 1 4.41-6.135 3.242 3.242 0 0 1 2.348-1.083 3.37 3.37 0 0 1 2.467.987l14.021 14.021c.65.651.65 1.706 0 2.357L30.9 33.823a1.685 1.685 0 0 0-.207 2.123 44.63 44.63 0 0 0 12.393 12.388 1.685 1.685 0 0 0 2.124-.206l6.458-6.452c.65-.65 1.706-.65 2.357 0l8.333 8.333A1.667 1.667 0 1 1 60 52.366l-7.155-7.155-5.278 5.278a5.028 5.028 0 0 1-6.333.622A47.948 47.948 0 0 1 27.92 37.796a5.028 5.028 0 0 1 .621-6.333l5.279-5.279-12.844-12.84a31.647 31.647 0 0 0-3.956 5.525 4.907 4.907 0 0 0-.584 3.439 52.608 52.608 0 0 0 40.292 40.291 4.907 4.907 0 0 0 3.438-.583 31.355 31.355 0 0 0 6.737-5.103 1.667 1.667 0 0 1 2.357 2.356 34.692 34.692 0 0 1-7.452 5.647 8.428 8.428 0 0 1-4.14 1.115zm7-9.863a1.667 1.667 0 1 0 0-3.334 1.667 1.667 0 0 0 0 3.334z" fill="#ADB5BD" fill-rule="evenodd"/>
</svg>
